X:1
T:Title
%%score { ( 1 4 5 ) | ( 2 3 ) }
L:1/8
M:6/4
K:F
V:1 treble nm="Grand Piano"
V:4 treble 
V:5 treble 
V:2 bass 
V:3 bass 
V:1
 z12[Q:1/4=174] | .[F,A,C]6 [A,F]2 G2 A2 | [DFc]4 B2 A4 CC | D2 E2 F2 G2 D2 A2 | G12 | %5
 B2 B2 B2 E2 F2 G2 | A4 A2 A4 AA | z6 z2 .F4 | C12[K:bass] | c2 c2 A2 F2 F2 F2 | %10
 [DGB]4 [DG]2 [A,^CE]4 A,A, | D2 E2 F2 [DFG]4 [F_A]2 | [A,A]2- [A,-GA-]2 [A,-FA-]2 [A,EA]4 [FA]2 | %13
 c2 c2 c2 .[DGB]6 | .[^CA]6 D6 | [DF]4 D2 .[=B,A]6 | [B,CEG]6- [B,CEG]4 [G,C]2 | %17
 [CFc]4 [A,DF]2 .[CFA]4 [B,CEG]2 |[M:5/4] [A,CF]2- [A,CF]2- [A,CF]6 |] %19
V:2
 z6 z4 C2 | z2 D2 E2 z2 B,2 C2 | z4[K:treble] [^CF]2 [F,=CF]4[K:bass] [A,,F,]2 | %3
 [F,B,]2 [G,C]2 [F,C]2 [G,,F,]6 | [E,C]2 G,2 F,2 E,4 F,2 | [C,G,]6 [^C,B,]2 [D,A,]2 [E,C]2 | %6
 [F,CF]6 [^F,C_E]6 | E4- [G,E]2 z2 D,2 F,2 | [E,G,]2 E,2 E,2 z2 E,2 [E,G,]2 | %9
 F,4- [F,,F,]2 [D,A,D]6 | z4 B,2 A,,2 =B,,2 ^C,2 | A,2- [^C,G,A,-]2 [D,F,A,]2 z4 D2 | %12
 z2 E2 D2 ^C4 [D,D]2 | [^F,,^F,]6 z2[K:treble] B2 B2 | A,,2 =B,,2 ^C,2 D,4 C,2 | %15
 [B,,G,]6 z2[K:treble] D2 A2 | C,6- C,4 B,,2 | [A,,F,]4 D,2 z A3 [C,,C,]2 | %18
[M:5/4] [F,,F,]2- [F,,F,]2- [F,,F,]6 |] %19
V:3
 x12 | F,,6 F,6 | [F,,F,]6[K:treble] z6[K:bass] | .B,,6 z6 | C,6 C,6 | x12 | x12 | .[G,C]6 G,,6 | %8
 C,6 B,,6 | .A,,6 z6 | [G,,G,]6 z6 | .[D,F,]6 [B,,B,]6 | A,,12 | z6 [G,,G,]6[K:treble] | x12 | %15
 z6 [G,,F,]6[K:treble] | x12 | z6 .C,6 |[M:5/4] x10 |] %19
V:4
 x12 | x12 | x12 | z6 =B,6 | z2 E2 D2 z4 AA | E6 z6 | x12 | G2 A2 c2 [G,CE]2 =B,2- [B,D]2 | %8
 z2[K:bass] G,2 G,2 [E,G,]2 G,2 C2 | [CF]6 z6 | x12 | x12 | .[^CE]6 z6 | [_EA]6 z6 | %14
 A,2- [A,-DA]2 [A,EG]2 [A,F]4 [_A,F]2 | x12 | x12 | x12 |[M:5/4] x10 |] %19
V:5
 x12 | x12 | x12 | x12 | z6 C6 | x12 | x12 | x12 | x2[K:bass] x10 | x12 | x12 | x12 | x12 | x12 | %14
 x12 | x12 | x12 | x12 |[M:5/4] x10 |] %19

